src/assets/check-in-icon.svg

<svg width="24" height="18" viewBox="0 0 24 18" fill="none" xmlns="http://www.w3.org/2000/svg">
<path d="M8.35191 16.8059L0.958152 9.72369C0.513949 9.29821 0.513949 8.60833 0.958152 8.18281L2.56678 6.64193C3.01099 6.2164 3.73126 6.2164 4.17546 6.64193L9.15625 11.4128L19.8245 1.19411C20.2687 0.768629 20.989 0.768629 21.4332 1.19411L23.0418 2.73499C23.4861 3.16048 23.4861 3.85035 23.0418 4.27587L9.96059 16.8059C9.51634 17.2314 8.79611 17.2314 8.35191 16.8059Z" fill="#F2C247"/>
</svg>

<svg xmlns="http://www.w3.org/2000/svg" width="24" height="18" fill="none" viewBox="0 0 24 18">
    <path fill="#F2C247" d="M8.352 16.806.958 9.724a1.057 1.057 0 0 1 0-1.541l1.609-1.541a1.173 1.173 0 0 1 1.608 0l4.981 4.77L19.824 1.195a1.173 1.173 0 0 1 1.61 0l1.608 1.541a1.057 1.057 0 0 1 0 1.54L9.96 16.806a1.173 1.173 0 0 1-1.61 0Z"/>
</svg>
